X:111
T:Lovely Kate
M:C
L:1/8
B:Thompson's Compleat Collection of 200 Favourite Country Dances, vol. 3 (London, 1773)
Z:Transcribed and edited by Flynn Titford-Mock, 2007
Z:abc's:AK/Fiddler's Companion
K:F
C | FAcA Bdgb | AcfF EGEC | fafc dBgb | agfe f2F::c | fefg afcA | BGgf ecGE |
FAdF EgcE | Dc=Bd c2C2 | fcBA Bcdc | BAGF FEDC | B,DGB cegb | agfe f2 F :|

